X: 4348
M: 6/8
L: 1/8
K: G
!f!Bc |\
dBc dBc | dBc def | (gd)B zBd | ccc BBB |\
dBc def |
(gd)B zdB | AAA AB^c | d3- dB^c |\
d3- dB^c | ddd eee | fff ede | d2e A>B^c |\
d2e A>B^c | d2z zBd |
cBc cBc | (cd) e2 cA | BdB AcA | G3- GEF |\


